X:74
T:Silver Spear
R:reel
C:Traditional
M:4/4
K:D
FA A2 BAFA | dfed Bcde | FA A2 BAFA | dfed (3(BcB)A2 |
FAAd BAFA | dfed Bcde | g2 ge (3(fgf) fe | dfed (3(BcB)A2 :|
|: fa a2 bfaf | gfed Bcde | fa a2 bfaf | gfed (3(BcB)A2 |
fa a2 bfaf | gfed Bcde | g2 ge (3(fgf) fe | dfed (3(BcB)A2 :|

%%newpage
%%scale .64
%%staffsep 25

